!!!COM: Gomółka, Mikołaj
!!!CDT: ~1535-after 1591
!!!OTL: Kto będzie w Twoim mieszkaniu
!!!OTL@LAT: Domine qui habitat
!!!AGn: Motet; Psalm
!!!SCn: Gom2015
!!!SCn: Gom2015
!!!voices: 4
**kern	**kern	**kern	**kern
*staff4	*staff3	*staff2	*staff1
*Ivox	*Ivox	*Ivox	*Ivox
*I"Bassus	*I"Tenor	*I"Altus	*I"Cantus
*I'B	*I'T	*I'A	*I'C
*clefF4	*clefGv2	*clefG2	*clefG2
*k[b-]	*k[b-]	*k[b-]	*k[b-]
*M2/1	*M2/1	*M2/1	*M2/1
*met(C|)	*met(C|)	*met(C|)	*met(C|)
=1-	=1-	=1-	=1-
2.G	1g	1b-	2.g
4F	.	.	4a
4G	2g	2b-	4b-
4A	.	.	4cc
2B-	2f	2b-	[2dd
=2	=2	=2	=2
2G	1e	2b-	2dd]
2A	.	4a	2cc
.	.	4g	.
2B-	2d	2f	2dd
2F	2a	2cc	[2ff
=3	=3	=3	=3
2B-	2f	2dd	2ff]
2A	2a	2cc	2ff
2B-	4g	2b-	2dd
.	4f	.	.
2d	4f	2f	2ff
.	8eL	.	.
.	8dJ	.	.
=4	=4	=4	=4
1c	2.e	2.g	1ee
.	4f	4a	.
2B-	2g	2b-	2dd
2B-	2f	2b-	4b-
.	.	.	4cc
=5	=5	=5	=5
2F	4f	2a	4dd
.	4e	.	4cc
2B-	4e	4e	2cc
.	8dL	4f	.
.	8cJ	.	.
1G	1d	2.g	2cc
.	.	.	2bni
.	.	4f	.
=6	=6	=6	=6
2C	2c	2e	2cc
2c	2e	2g	2cc
2c	2e	2g	2cc
2A	2f	2a	2cc
=7	=7	=7	=7
2d	2f	2a	2a
2d	4e	4g	2b-
.	4d	4f	.
2c	2e	2g	2cc
[2c	2g	2cc	2ee
=8	=8	=8	=8
4c]	2g	2.cc	2ee
4B-	.	.	.
4A	2.a	.	2cc
4G	.	4b-	.
4F	.	[1a	[1ff
4E	4g	.	.
4D	4f	.	.
4C	4e	.	.
=9	=9	=9	=9
1D	1f	2a]	2ff]
.	.	2b-	4ee
.	.	.	4dd
2C	2g	4cc	2ee
.	.	4b-	.
2F	2c	4a	[2ff
.	.	4g	.
=10	=10	=10	=10
2.B-	1d	2f	4ff]
.	.	.	4ee
.	.	2.b-	4dd
4A	.	.	4cc
2.G	1d	.	4dd
.	.	4a	4cc
.	.	2g	4b-
4F	.	.	4a
=11	=11	=11	=11
2E	1e	4c	2g
.	.	4d	.
2C	.	4e	1cc
.	.	8dL	.
.	.	8cJ	.
1G	1d	4d	.
.	.	2g	.
.	.	.	2bni
.	.	4f	.
=12	=12	=12	=12
0C	0c	0e	0cc
==	==	==	==
*-	*-	*-	*-
!!!CNT: Polish
!!!OCY: Poland
!!!LYR: Jan Kochanowski (1530-1584/08/22)
!!!GTL: Melodiae na Psałterz Polski
!!!EFL: 15/150
!!!PPR: Łazarz Andrysowicz
!!!PPP: Kraków
!!!PDT: 1580
!!!YEC: 2015 Marcin Konik
!!!ENC: Marcin Konik
!!!END: 2015/03/06
!!!EED: Marcin Konik
!!!EEV: 2015/03/06
!!!ONB: Translated from MusicXML and edited on 2015/03/06 by Marcin Konik
!!!CharacterEncoding: utf-8
!!muse2ps: i2I150v85,85,85,150Q16
!!title: @{OTL}, @{GTL}, ed. @{ENC}
